X:1
T:Title
%%score { ( 1 3 ) | ( 2 4 ) }
L:1/8
Q:1/4=106
M:3/4
K:C
V:1 treble nm="Grand Piano"
V:3 treble 
V:2 bass 
V:4 bass 
V:1
 [Ec]4 G2 | A4 G2 | [FB]2 [Ec]2 [Fd]2 | D2 E2 F2 | [Ec]4 [CEA]2 | [DGd]4 [DGB]2 | %6
w: Alfred~Judson *||||||
 [EAc]2 [DGB]2 [C^FA]2 | [B,DG]4 G2 | G4 A2 | B4 c2 | d2 [GBdg]2 [GBdg]2 |[M:2/4] [GBdg]4 | %12
w: ||||||
[M:1/4] [G,G]2 |[M:3/4] [Ec]4 G2 | E4 (3EFG | G2 A2 G2 | G2 F2 [FA]2 | [^Fd]4 [Fc]2 | %18
w: ||||||
 [DGB]4 (3:2:2[DG]2 [DGB] | [CGc]2 [CEA]2 (3:2:2[CEG]2 [G,CE] | %20
w: ||
 [G,B,E]2 [G,B,D]2 (3:2:2[B,FG]2 [B,FA] | [B,DA]2 [B,DG]2 [CEA]2 | [DFA]4 (3:2:2[CEG]2 [CEA] | %23
w: |||
 [B,FA]2 [B,FG]2 [CEA]2 | [_EA]4 [EA]2 | G2- [FG]2 (3GAB | c2 [EB]2 [EA]2 | %27
w: ||||
 [DG]2 [^FA]2- (3:2:2[FA]2 [DG] | G4 c2 | c4 B2 | B4 e2 | e4 d2 | d4 [Ec]2 | [_EB]4 [EA]2 | %34
w: |||||||
 G2- [FG]2 G2 | c2 B2 A2 | G2 F2 E2 | D4 z2 | [E,C]6 |] %39
w: |||||
V:2
 [C,G,]4 [E,C]2 | [F,CF]4 [E,C]2 | [D,G,]2 [C,G,]2 [B,,G,]2 | F,2 E,2 D,2 | [C,G,]4 C,2 | %5
 B,,4 G,,2 | A,,2 D,2 D,2 | G,4 G,2 | G,4 A,2 | B,4[K:treble] C2 | D2 [G,B,DF]2 [G,B,DF]2 | %11
[M:2/4] [G,B,DF]4 |[M:1/4] z2 |[M:3/4][K:bass] [C,G,]4 [E,G,C]2 | [A,C]4 (3[G,C-][A,C][E,G,C] | %15
 [E,G,C]2 [F,C]2 [E,G,C]2 | [D,A,D]2 [D,A,D]2 [D,D]2 | [D,D]4 [D,D]2 | F,4 (3F,-[F,A]F, | %19
 E,2 C,2 (3:2:2E,2 C, | G,,2 G,,2 (3:2:2G,2 G, | F,2 F,2 E,2 | D,4 (3:2:2E,2 E, | D,2 D,2 C,2 | %24
 [B,,^F,]4 [B,,F,]2 | [C,C]2 [D,B,]2[K:treble] [G,B,F]2 | [A,E]2[K:bass] [B,,^G,]2 [C,A,]2 | %27
 [D,B,]2 [D,C]2- (3:2:2[D,C]2 [G,B,] | [G,B,D]4 [A,E]2 | [A,E]4 [E,^G,E]2 | %30
 [E,^G,E]4[K:treble] [CG]2 | [CG]4 [G,B,G]2 | [G,B,G]4[K:bass] [A,,A,]2 | [B,,^F,]4 [B,,B,]2 | %34
 [C,G,]2 [D,B,]2 G,2 | [CE]4 z2 | C4 z2 | C2 z2 z2 | C,6 |] %39
V:3
 x6 | x6 | x6 | [G,G]6 | x6 | x6 | x6 | x6 | x6 | x6 | x6 |[M:2/4] x4 |[M:1/4] x2 |[M:3/4] x6 | %14
 x6 | x6 | x6 | x6 | x6 | x6 | x6 | x6 | x6 | x6 | x6 | E2 z2 z2 | x6 | x6 | x6 | x6 | x6 | x6 | %32
 x6 | x6 | E2 z2 z2 | x6 | x6 | z2 B,A, [F,B,D]2 | x6 |] %39
V:4
 x6 | x6 | x6 | x6 | x6 | x6 | x6 | x6 | x6 | x4[K:treble] x2 | x6 |[M:2/4] x4 |[M:1/4] x2 | %13
[M:3/4][K:bass] x6 | x6 | x6 | x6 | x6 | x6 | x6 | x6 | x6 | x6 | x6 | x6 | x4[K:treble] x2 | %26
 x2[K:bass] x4 | x6 | x6 | x6 | x4[K:treble] x2 | x6 | x4[K:bass] x2 | x6 | x6 | A,2 G,2 [F,C]2 | %36
 [E,G,]2 [F,A,]2 [^F,A,C]2 | G,4 G,,2 | x6 |] %39

